!!!ONB: MCCC : IFC0120_02 : Extracted Monophonic Melody
!!!COM: Chopin, Frédéric
!!!OPR: Waltzes
!!!OMV: 2
!!!SCT: Op.69
!!!ODT: 1829///
**kern
*thru
*staff1
*clefG2
*k[f#c#g#d#]
*c#:
*M3/4
*MM180
4g#
=1
2.ee
=2
2.dd#
=3
8r
8g#
8a
16r
16g#
4dd#
=4
8r
8g#
8a
16r
16g#
4cc#
=5
2.cc#
=6
2.b#
=7
8r
8e
8f#
16r
16e
4b
=8
8r
8e
8f#
16r
16e
4a
=9
2a
4g#[
=10
8g#]
8g#
8g#
8a
8a
8a#
=11
2cc#
4b[
=12
8b]
8b
8b
8cc#
8cc#
8cc##
=13
8cc##
8dd#
8dd#
8gg#
8gg#
8ff##
=14
8ff##
8ff#
8ff#
8ee#
8ee#
8ee
=15
8ee
8dd#
8dd#
8cc##
8cc##
8cc#
=16
8cc#
8b#
8b#
8b
8b
8a
=17
2.ee
=18
2.dd#
=19
8r
8g#
8a
16r
16g#
4dd#
=20
8r
8g#
8a
16r
16g#
4cc#
=21
2.cc#
=22
2.b#
=23
8r
8e
8f#
16r
16e
4b
=24
8r
8e
8f#
16r
16e
4a
=25
2a
4g#[
=26
8g#]
8g#
8g#
8a
8a
8a#
=27
2dd#
[4cc#
=28
8cc#]
8f#
8f#
8g#
8g#
8a
=29
2cc#
4b[
=30
8b]
8a
8g#
8f#
8e
8f#
=31
8f##
8g#
8G#
8e
8e
8d#
=32
4c#
4r
4g#
=33
8gg#
8aa
8gg#
8ff#
8dd#
8g#
=34
8ff#
8gg#
8ff#
8ee
8cc#
8g#
=35
8ee
8ff#
8ee
8dd#
8b#
8f#
=36
8dd#
8ee
8dd#
8cc#
8a
8e
=37
8cc#
8dd#
8cc#
8a
8d#
8cc#
=38
8cc#
8dd#
8cc#
8g#
8c#
8g#
=39
8g#
8G#
8d#
8g#
8a
8g#
=40
8f##
8g#
8b#
8cc#
8ee
8ff#
=41
8gg#
8aa
8gg#
8ff#
8dd#
8g#
=42
8ff#
8gg#
8ff#
8ee
8cc#
8g#
=43
8ee
8ff#
8ee
8dd#
8b#
8f#
=44
8dd#
8ee
8dd#
8cc#
8a
8e
=45
8a
8b
8cc#
8dd
8ee
8ff#
=46
8gg
8gg#
8aa
8bb
8ccc#
8ddd
=47
8ddd#
8eee
8eee#
8fff#
8fff##
8ggg#
=48
2cccc#
4g#
=49
8gg#
8aa
8gg#
8ff#
8dd#
8g#
=50
8ff#
8gg#
8ff#
8ee
8cc#
8g#
=51
8ee
8ff#
8ee
8dd#
8b#
8f#
=52
8dd#
8ee
8dd#
8cc#
8a
8e
=53
8cc#
8dd#
8cc#
8a
8d#
8cc#
=54
8cc#
8dd#
8cc#
8g#
8c#
8g#
=55
8g#
8G#
8d#
8g#
8a
8g#
=56
8f##
8g#
8b#
8cc#
8ee
8ff#
=57
8gg#
8aa
8gg#
8ff#
8dd#
8g#
=58
8ff#
8gg#
8ff#
8ee
8cc#
8g#
=59
8ee
8ff#
8ee
8dd#
8b#
8f#
=60
8dd#
8ee
8dd#
8cc#
8a
8e
=61
8a
8b
8cc#
8dd
8ee
8ff#
=62
8gg
8gg#
8aa
8bb
8ccc#
8ddd
=63
8ddd#
8eee
8eee#
8fff#
8fff##
8ggg#
=64
4cccc#
4r
*k[b-e-a-d-g-]
4f
=65
2.ff
=66
2ff
[4ee-
=67
2ee-]
4dd-
=68
4cc
4b-
4f
=69
4g-
4r
4r
=70
2gg-
4ff[
=71
4ff]
4.ee-
8dd-
=72
8cc
8dd-
8ff
8ee-
8cc
8b-
=73
4a-
4r
4aa-[
=74
4aa-]
4gg-
4ff
=75
4ff
4ee-
[4ddd-
=76
2ddd-]
[4ddd-
=77
4ddd-]
4.ccc
8bb-
=78
4ccc
4bb-
4bb--
=79
4aa-
4gg
4gg-
=80
8ff
8cc
8dd-
8cc
8dd-
8b-
=81
2a-
[4ff
=82
2ff]
4ee-[
=83
4ee-]
4dd-
4a
=84
16.cc
16.b-
16.e
16.f
16.g-
16.f
16.b-
16.a
=85
12a-
12g-
12g-
8gg-
8r
4r
=86
4r
4r
4ff[
=87
4ff]
4ee-
4dd-
=88
4dd-
8cc
8ee-
8b-
8dd-
=89
4a-
4r
[4aa-
=90
4aa-]
4.gg-
8ff
=91
4ff
4ee-
[4ddd-
=92
2ddd-]
4ddd-[
=93
4ddd-]
4ccc
4bb-
=94
4aa-
4gg
4gg-
=95
4ff-
4ee-
4dd-
=96
8cc
8dd-
8ee-
8dd-
8ff-
8g
=97
*k[f#c#g#d#]
8g#
8aa
8gg#
8ff#
8dd#
8g#
=98
8ff#
8gg#
8ff#
8ee
8cc#
8g#
=99
8ee
8ff#
8ee
8dd#
8b#
8f#
=100
8dd#
8ee
8dd#
8cc#
8a
8e
=101
8cc#
8dd#
8cc#
8a
8d#
8cc#
=102
8cc#
8dd#
8cc#
8g#
8c#
8g#
=103
8g#
8G#
8d#
8g#
8a
8g#
=104
8f##
8g#
8b#
8cc#
8ee
8ff#
=105
8gg#
8aa
8gg#
8ff#
8dd#
8g#
=106
8ff#
8gg#
8ff#
8ee
8cc#
8g#
=107
8ee
8ff#
8ee
8dd#
8b#
8f#
=108
8dd#
8ee
8dd#
8cc#
8a
8e
=109
8a
8b
8cc#
8dd
8ee
8ff#
=110
8gg
8gg#
8aa
8bb
8ccc#
8ddd
=111
8ddd#
8eee
8eee#
8fff#
8fff##
8ggg#
=112
2cccc#
4g#
=113
8gg#
8aa
8gg#
8ff#
8dd#
8g#
=114
8ff#
8gg#
8ff#
8ee
8cc#
8g#
=115
8ee
8ff#
8ee
8dd#
8b#
8f#
=116
8dd#
8ee
8dd#
8cc#
8a
8e
=117
8cc#
8dd#
8cc#
8a
8d#
8cc#
=118
8cc#
8dd#
8cc#
8g#
8c#
8g#
=119
8g#
8G#
8d#
8g#
8a
8g#
=120
8f##
8g#
8b#
8cc#
8ee
8ff#
=121
8gg#
8aa
8gg#
8ff#
8dd#
8g#
=122
8ff#
8gg#
8ff#
8ee
8cc#
8g#
=123
8ee
8ff#
8ee
8dd#
8b#
8f#
=124
8dd#
8ee
8dd#
8cc#
8a
8e
=125
8a
8b
8cc#
8dd
8ee
8ff#
=126
8gg
8gg#
8aa
8bb
8ccc#
8ddd
=127
8ddd#
8eee
8eee#
8fff#
8fff##
8ggg#
=128
4cccc#
4r
4g#
=129
2.ee
=130
2.dd#
=131
8r
8g#
8a
16r
16g#
4dd#
=132
8r
8g#
8a
16r
16g#
4cc#
=133
2.cc#
=134
2.b#
=135
8r
8e
8f#
16r
16e
4b
=136
8r
8e
8f#
16r
16e
4a
=137
2a
4g#[
=138
8g#]
8g#
8g#
8a
8a
8a#
=139
2cc#
4b[
=140
8b]
8b
8b
8cc#
8cc#
8cc##
=141
8cc##
8dd#
8dd#
8gg#
8gg#
8ff##
=142
8ff##
8ff#
8ff#
8ee#
8ee#
8ee
=143
8ee
8dd#
8dd#
8cc##
8cc##
8cc#
=144
8cc#
8b#
8b#
8b
8b
8a
=145
2.ee
=146
2.dd#
=147
8r
8g#
8a
16r
16g#
4dd#
=148
8r
8g#
8a
16r
16g#
4cc#
=149
2.cc#
=150
2.b#
=151
8r
8e
8f#
16r
16e
4b
=152
8r
8e
8f#
16r
16e
4a
=153
2a
4g#[
=154
8g#]
8g#
8g#
8a
8a
8a#
=155
2dd#
[4cc#
=156
8cc#]
8f#
8f#
8g#
8g#
8a
=157
2cc#
4b[
=158
8b]
8a
8g#
8f#
8e
8f#
=159
8f##
8g#
8G#
8e
8e
8d#
=160
4c#
4r
4g#
=161
8gg#
8aa
8gg#
8ff#
8dd#
8g#
=162
8ff#
8gg#
8ff#
8ee
8cc#
8g#
=163
8ee
8ff#
8ee
8dd#
8b#
8f#
=164
8dd#
8ee
8dd#
8cc#
8a
8e
=165
8cc#
8dd#
8cc#
8a
8d#
8cc#
=166
8cc#
8dd#
8cc#
8g#
8c#
8g#
=167
8g#
8G#
8d#
8g#
8a
8g#
=168
8f##
8g#
8b#
8cc#
8ee
8ff#
=169
8gg#
8aa
8gg#
8ff#
8dd#
8g#
=170
8ff#
8gg#
8ff#
8ee
8cc#
8g#
=171
8ee
8ff#
8ee
8dd#
8b#
8f#
=172
8dd#
8ee
8dd#
8cc#
8a
8e
=173
8a
8b
8cc#
8dd
8ee
8ff#
=174
8gg
8gg#
8aa
8bb
8ccc#
8ddd
=175
8ddd#
8eee
8eee#
8fff#
8ggg
8ggg#
=176
2cccc#
4g#
=177
8gg#
8aa
8gg#
8ff#
8dd#
8g#
=178
8ff#
8gg#
8ff#
8ee
8cc#
8g#
=179
8ee
8ff#
8ee
8dd#
8b#
8f#
=180
8dd#
8ee
8dd#
8cc#
8a
8e
=181
8cc#
8dd#
8cc#
8a
8d#
8cc#
=182
8cc#
8dd#
8cc#
8g#
8c#
8g#
=183
8g#
8G#
8d#
8g#
8a
8g#
=184
8f##
8g#
8b#
8cc#
8ee
8ff#
=185
8gg#
8aa
8gg#
8ff#
8dd#
8g#
=186
8ff#
8gg#
8ff#
8ee
8cc#
8g#
=187
8ee
8ff#
8ee
8dd#
8b#
8f#
=188
8dd#
8ee
8dd#
8cc#
8a
8e
=189
8a
8b
8cc#
8dd
8ee
8ff#
=190
8gg
8gg#
8aa
8bb
8ccc#
8ddd
=191
8ddd#
8eee
8eee#
8fff#
8ggg
8ggg#
=192
4cccc#
4r
4r
==
*-
